frontend/public/svg/health/pills.svg

<svg width="133" height="154" viewBox="0 0 133 154" fill="none" xmlns="http://www.w3.org/2000/svg">
<g clip-path="url(#clip0)">
<path d="M67.2806 143.948C61.883 149.444 54.8838 150.736 47.9141 152C41.8396 153.213 35.5753 153.107 29.5451 151.69C17.8065 148.771 4.57947 138.284 3.04889 120.811C2.19565 111.085 1.54855 101.373 1.65881 91.5811C1.77696 81.045 1.02082 70.5015 0.867238 59.9574C0.774038 53.566 0.459641 47.0742 1.38048 40.7924C2.93731 30.1735 4.61289 19.3833 12.6294 11.1259C19.2289 4.32826 26.9908 -0.0194411 36.7322 0.315291C39.3015 0.434508 41.8328 0.982215 44.2216 1.93579C50.5523 4.40055 55.9535 8.784 59.6684 14.4719C66.0625 24.082 69.7104 34.7337 71.2029 46.1205C71.9452 51.7768 72.3705 57.4751 72.9717 63.4787C74.012 63.201 75.0458 62.9451 76.0677 62.6491C88.1778 59.1364 100.174 59.1809 112.064 63.6794C115.187 64.8039 118.044 66.5609 120.456 68.841C122.868 71.1205 124.784 73.8738 126.083 76.9277C131.465 88.9499 133.302 101.368 130.468 114.339C128.525 123.221 124.112 130.547 116.775 136.04C106.952 143.395 95.9803 147.434 83.649 147.407C78.0944 147.399 72.761 146.07 67.2806 143.948ZM9.07737 74.1705C15.0179 74.1705 20.5108 74.2538 26.0004 74.1528C36.0975 73.9664 46.1926 73.6861 56.2871 73.394C57.0284 73.3514 57.7413 73.0941 58.3388 72.653C60.0586 71.3955 61.7001 70.0336 63.2541 68.5759C63.925 67.9208 64.3383 67.0459 64.4191 66.112C64.4847 62.0721 64.4684 58.0245 64.2912 53.988C63.7786 42.3237 61.6809 31.0424 56.0115 20.6407C53.6313 16.1599 50.1425 12.3638 45.8782 9.6144C40.2304 5.97897 34.2952 5.42825 28.2155 8.05101C21.0253 11.1535 15.5055 16.3208 12.6084 23.5792C9.38243 31.5093 7.7412 39.9944 7.77723 48.5555C7.84943 56.0705 8.36787 63.5811 8.71573 71.0922C8.76233 72.0827 8.94413 73.0678 9.07737 74.1705ZM59.5669 139.832C57.7429 138.306 56.3303 137.201 55.0045 135.999C50.079 131.685 46.529 126.021 44.7953 119.707C41.4289 107.203 43.7812 95.5146 49.7394 84.3221C50.3045 83.2614 50.8729 82.2021 51.4754 81.0751C45.8158 80.2219 12.3892 80.7247 9.33859 81.7118C9.33859 83.4419 9.27624 85.2232 9.3504 86.9986C9.56109 92.0406 9.73239 97.0878 10.096 102.119C10.5804 108.82 11.0733 115.527 11.8478 122.198C13.1138 133.098 23.3015 142.336 32.9083 144.047C41.1066 145.508 48.9584 144.08 56.6842 141.448C57.6888 140.992 58.6532 140.451 59.5669 139.832ZM116.221 78.8639C114.381 75.6978 111.507 73.2615 108.083 71.9645C103.927 70.3014 99.709 68.7485 95.4191 67.4791C92.7715 66.6974 89.858 65.8927 87.2064 66.2262C80.5984 66.9462 74.245 69.1777 68.6386 72.7488C59.5956 78.6762 54.807 87.5342 51.8863 97.5768C49.7328 104.982 49.7152 112.413 52.3609 119.741C52.8329 121.047 53.4976 122.284 54.0817 123.572C74.096 107.265 95.918 94.2144 116.221 78.8639ZM58.3632 129.305C64.7664 135.514 71.7956 138.972 79.9867 139.79C91.8848 140.977 102.302 137.051 111.641 129.945C116.634 126.196 120.11 120.776 121.434 114.674C122.863 108.305 123.037 101.719 121.947 95.2829C121.513 92.5919 120.716 89.9633 119.962 86.7892L58.3632 129.305Z" fill="black"/>
</g>
<defs>
<clipPath id="clip0">
<rect width="131.924" height="152.927" fill="white" transform="translate(0.164917 0.196777)"/>
</clipPath>
</defs>
</svg>

<svg xmlns="http://www.w3.org/2000/svg" width="133" height="154" fill="none" viewBox="0 0 133 154"><g clip-path="url(#a)"><path fill="#000" d="M67.28 143.948c-5.397 5.496-12.396 6.788-19.366 8.052a43.3 43.3 0 0 1-18.369-.31C17.806 148.771 4.58 138.284 3.05 120.811c-.853-9.726-1.5-19.438-1.39-29.23.118-10.536-.638-21.08-.792-31.624-.093-6.391-.407-12.883.513-19.165 1.557-10.619 3.233-21.409 11.25-29.666C19.228 4.328 26.99-.02 36.731.316c2.57.119 5.1.666 7.49 1.62a32.56 32.56 0 0 1 15.446 12.536c6.395 9.61 10.042 20.262 11.535 31.649.742 5.656 1.168 11.354 1.769 17.358 1.04-.278 2.074-.534 3.096-.83 12.11-3.513 24.106-3.468 35.996 1.03a24.1 24.1 0 0 1 14.019 13.249c5.382 12.022 7.219 24.44 4.385 37.411-1.943 8.882-6.356 16.208-13.693 21.701-9.823 7.355-20.795 11.394-33.126 11.367-5.555-.008-10.888-1.337-16.368-3.459M9.078 74.171c5.94 0 11.434.083 16.923-.018 10.097-.187 20.193-.467 30.287-.759a3.8 3.8 0 0 0 2.052-.741 52 52 0 0 0 4.915-4.077 3.92 3.92 0 0 0 1.165-2.464c.066-4.04.05-8.087-.128-12.124-.512-11.664-2.61-22.946-8.28-33.347A29.7 29.7 0 0 0 45.879 9.614C40.23 5.98 34.295 5.428 28.216 8.051c-7.19 3.102-12.71 8.27-15.608 15.528a65.6 65.6 0 0 0-4.83 24.977c.071 7.515.59 15.025.938 22.536.046.99.228 1.976.361 3.079m50.49 65.661c-1.824-1.526-3.237-2.631-4.562-3.833a33.4 33.4 0 0 1-10.21-16.292c-3.366-12.504-1.014-24.192 4.944-35.385l1.736-3.247c-5.66-.853-39.086-.35-42.136.637 0 1.73-.063 3.511.011 5.287.211 5.042.382 10.089.746 15.12.484 6.701.977 13.408 1.752 20.079 1.266 10.9 11.454 20.138 21.06 21.849 8.199 1.461 16.05.033 23.776-2.599a19.5 19.5 0 0 0 2.883-1.616m56.654-60.968a15.95 15.95 0 0 0-8.138-6.9c-4.156-1.663-8.374-3.215-12.664-4.485-2.647-.782-5.561-1.586-8.213-1.253A43.3 43.3 0 0 0 68.64 72.75c-9.043 5.927-13.832 14.785-16.753 24.828-2.153 7.405-2.17 14.836.475 22.164.472 1.306 1.137 2.543 1.72 3.831 20.015-16.307 41.837-29.358 62.14-44.708m-57.858 50.441c6.403 6.209 13.433 9.667 21.624 10.485 11.898 1.187 22.315-2.739 31.654-9.845a26 26 0 0 0 9.793-15.271 50.3 50.3 0 0 0 .513-19.391c-.434-2.691-1.231-5.32-1.985-8.494z"/></g><defs><clipPath id="a"><path fill="#fff" d="M.165.197h131.924v152.927H.165z"/></clipPath></defs></svg>
